X:1
T:McGuire's Welcome to Fermanagh
S:Willie Hunter & Violet Tulloch
S:Dominique Renaudin <domren:free.fr> scots_music 2005-11-18
M:C
K:A
ABcB AFFA|ECFC ECB,C|A,CEC DF~F2|E2ec BAFE|
ABcB AFdF|ECFC ECB,C|A,CEC D3 f|1 ecBc A3 E:|2 ecBc A2cd||
e3 f ecBc|AecA FecA|f3 a fdcd|AdfA dfAf|
e3 f ecBc|AecA GecA|d2fd Adfd|1 ecBc Agaf:|2 ecBc A3 E |]
